X: 1
T: Polka Sainte Rose
C: Alfred Montmarquette (1931)
R: polka
Z: 2022 John Chambers <jc:trillian.mit.edu>
M: 2/4
L: 1/16
K: D
F-FG |
"D"ABAF D3d | "Em"c2d2 e2EF | "A7"GAGE C3e | dcde fdFG |
"D"ABAF D3d | "Em"c2d2 e4 | "A8"A2AA cAce | g2[gec a][gecA] [g2e2c2A2] :|
|: de |\
"D"fafd "A7"egec | "D"d2f2 A3f | "Em"e2ge "A7"cage | "D"dcdf "A7"afde |
"D"fafd "A7"egec | "Bm7"d2f2 A3f | "Em"eage "A7"cABc | "D"d2[dAF][dAF] [d2A2F2] :|
